;FLAVOR:Marlin
;TIME:927
;Filament used: 0.642903m
;Layer height: 0.2
;MINX:142.8
;MINY:100.3
;MINZ:0.3
;MAXX:157.2
;MAXY:119.7
;MAXZ:9.9
;Generated with Cura_SteamEngine 4.4.1
M140 S60
M105
M190 S60
M104 S200
M105
M109 S200
M82 ;absolute extrusion mode
M117 Print Starting...
M75 ; Start Print Timer and Engage Fil Sensor if USB Printing
M84 E ; Disable E Motor for probe accuracy on direct drive systems
M117 Antiblob retract...
G92 E0 ; Reset Extruder distance to 0
G1 E-2 ; Retracts filament to prevent blobs during probing
G92 E0 ; Reset Extruder distance to 0
M117 Homing All...
G28 ; home all axes
M117 Homing Z Probe...
G28 Z ; home z again
M117 Generating mesh...
G29; auto bed leveling
M117 Heaters Recovering...
G4 S10; wait for heaters to recover
M420 Z0; Z fade
M900 K0; LA

M117 Purging extruder...
G92 E0 ; reset extruder
G1 Z1.0 F3000 ; move z up little to prevent scratching of surface
G1 X0.1 Y20 Z0.3 F5000.0 ; move to start-line position
G1 X0.1 Y100.0 Z0.3 F500.0 E15 ; draw 1st line
G1 X0.4 Y100.0 Z0.3 F5000.0 ; move to side a little
G1 X0.4 Y20 Z0.3 F500.0 E30 ; draw 2nd line
G92 E0 ; reset extruder
G1 Z1.0 F3000 ; move z up little to prevent scratching of surface

M117 Printing.....
G92 E0
G92 E0
G1 F1500 E-6.5
;LAYER_COUNT:49
;LAYER:0
M107
;MESH:Part.STL
G0 F6000 X143.5 Y117.586 Z0.3
;TYPE:WALL-INNER
G1 F1500 E0
G1 F1200 X143.5 Y117.106 E0.02395
G1 X143.5 Y117.105 E0.024
G1 X143.5 Y106 E0.57803
G1 X148.5 Y106 E0.82748
G1 X148.5 Y101 E1.07693
G1 X151.5 Y101 E1.2266
G1 X151.5 Y106 E1.47605
G1 X156.5 Y106 E1.7255
G1 X156.5 Y119 E2.37408
G1 X148.5 Y119 E2.7732
G1 X148.5 Y114.333 E3.00603
G1 X147.266 Y113.82 E3.07271
G1 X143.84 Y117.246 E3.31443
G1 X143.5 Y117.586 E3.32734
G0 F6000 X143.1 Y118.071
G1 F1200 X143.1 Y105.6 E3.94952
G1 X148.1 Y105.6 E4.19897
G1 X148.1 Y100.6 E4.44842
G1 X151.9 Y100.6 E4.638
G1 X151.9 Y105.6 E4.88745
G1 X156.9 Y105.6 E5.1369
G1 X156.9 Y119.4 E5.82539
G1 X148.1 Y119.4 E6.26442
G1 X148.1 Y114.6 E6.5039
G1 X147.36 Y114.292 E6.54388
G1 X143.44 Y118.212 E6.82046
G1 X143.1 Y118.552 E6.84445
G1 X143.1 Y118.072 E6.85733
G1 X143.1 Y118.071 E6.85738
G0 F6000 X143.038 Y118.702
G0 X142.8 Y119.276
;TYPE:WALL-OUTER
G1 F1200 X142.8 Y105.3 E7.55465
G1 X147.8 Y105.3 E7.8041
G1 X147.8 Y100.3 E8.05355
G1 X152.2 Y100.3 E8.27307
G1 X152.2 Y105.3 E8.52252
G1 X157.2 Y105.3 E8.77197
G1 X157.2 Y119.7 E9.49039
G1 X147.8 Y119.7 E9.95936
G1 X147.8 Y114.8 E10.20382
G1 X147.43 Y114.646 E10.22381
G1 X142.8 Y119.276 E10.55049
G0 F6000 X143.038 Y118.702
G0 X144.086 Y116.843
G0 X143.89 Y116.646
;TYPE:SKIN
G1 F1200 X143.89 Y106.39 E11.06216
G1 X148.89 Y106.39 E11.31161
G1 X148.89 Y101.39 E11.56106
G1 X151.11 Y101.39 E11.67182
G1 X151.11 Y106.39 E11.92127
G1 X156.11 Y106.39 E12.17072
G1 X156.11 Y118.61 E12.78038
G1 X148.89 Y118.61 E13.14059
G1 X148.89 Y114.073 E13.36694
G1 X147.175 Y113.36 E13.4596
G1 X143.89 Y116.646 E13.69141
G0 F6000 X144.296 Y116.012
G1 F1200 X144.048 Y115.764 E13.70891
G0 F6000 X144.579 Y115.729
G1 F1200 X144.048 Y115.199 E13.74634
G0 F6000 X144.048 Y114.633
G1 F1200 X144.862 Y115.446 E13.80373
G0 F6000 X145.144 Y115.163
G1 F1200 X144.048 Y114.067 E13.88106
G0 F6000 X144.048 Y113.501
G1 F1200 X145.427 Y114.88 E13.97836
G0 F6000 X145.71 Y114.597
G1 F1200 X144.048 Y112.936 E14.09559
G0 F6000 X144.048 Y112.37
G1 F1200 X145.993 Y114.315 E14.23282
G0 F6000 X146.276 Y114.032
G1 F1200 X144.048 Y111.804 E14.39001
G0 F6000 X144.048 Y111.239
G1 F1200 X146.559 Y113.749 E14.56714
G0 F6000 X146.842 Y113.466
G1 F1200 X144.048 Y110.673 E14.76424
G0 F6000 X144.048 Y110.107
G1 F1200 X147.124 Y113.183 E14.98127
G0 F6000 X147.236 Y113.67
G0 X147.894 Y113.961
G0 X148.063 Y113.556
G1 F1200 X144.048 Y109.542 E15.26451
G0 F6000 X144.048 Y108.976
G1 F1200 X149.032 Y113.96 E15.61616
G0 F6000 X149.049 Y113.977
G1 F1200 X153.522 Y118.45 E15.93175
G0 F6000 X152.957 Y118.45
G1 F1200 X149.049 Y114.542 E16.20748
G0 F6000 X149.049 Y115.108
G1 F1200 X152.391 Y118.45 E16.44328
G0 F6000 X151.825 Y118.45
G1 F1200 X149.049 Y115.674 E16.63914
G0 F6000 X149.049 Y116.239
G1 F1200 X151.26 Y118.45 E16.79514
G0 F6000 X150.694 Y118.45
G1 F1200 X149.049 Y116.805 E16.9112
G0 F6000 X149.049 Y117.371
G1 F1200 X150.128 Y118.45 E16.98733
G0 F6000 X149.562 Y118.45
G1 F1200 X149.049 Y117.936 E17.02356
G0 F6000 X148.61 Y117.936
G0 X148.682 Y118.818
G0 X154.088 Y118.89
G0 X154.088 Y118.45
G1 F1200 X144.048 Y108.41 E17.73194
G0 F6000 X144.048 Y107.845
G1 F1200 X154.654 Y118.45 E18.48022
G0 F6000 X155.219 Y118.45
G1 F1200 X144.048 Y107.279 E19.26839
G0 F6000 X144.048 Y106.713
G1 F1200 X155.785 Y118.45 E20.0965
G0 F6000 X155.949 Y118.048
G1 F1200 X144.45 Y106.549 E20.90781
G0 F6000 X145.016 Y106.549
G1 F1200 X155.949 Y117.482 E21.6792
G0 F6000 X155.949 Y116.917
G1 F1200 X145.581 Y106.549 E22.41072
G0 F6000 X146.147 Y106.549
G1 F1200 X155.949 Y116.351 E23.1023
G0 F6000 X155.949 Y115.785
G1 F1200 X146.713 Y106.549 E23.75395
G0 F6000 X147.279 Y106.549
G1 F1200 X155.949 Y115.22 E24.3657
G0 F6000 X155.949 Y114.654
G1 F1200 X147.844 Y106.549 E24.93755
G0 F6000 X148.41 Y106.549
G1 F1200 X155.949 Y114.088 E25.46947
G0 F6000 X155.949 Y113.523
G1 F1200 X148.976 Y106.549 E25.96149
G0 F6000 X149.048 Y106.056
G1 F1200 X155.949 Y112.957 E26.44839
G0 F6000 X155.949 Y112.391
G1 F1200 X149.048 Y105.491 E26.93526
G0 F6000 X149.048 Y104.925
G1 F1200 X155.949 Y111.826 E27.42216
G0 F6000 X155.949 Y111.26
G1 F1200 X151.238 Y106.549 E27.75455
G0 F6000 X150.949 Y106.26
G1 F1200 X149.048 Y104.359 E27.88867
G0 F6000 X149.048 Y103.794
G1 F1200 X150.949 Y105.694 E28.02276
G0 F6000 X150.949 Y105.129
G1 F1200 X149.048 Y103.228 E28.15689
G0 F6000 X149.048 Y102.662
G1 F1200 X150.949 Y104.563 E28.29101
G0 F6000 X150.949 Y103.997
G1 F1200 X149.048 Y102.097 E28.4251
G0 F6000 X149.067 Y101.549
G1 F1200 X150.949 Y103.432 E28.55793
G0 F6000 X150.949 Y102.866
G1 F1200 X149.632 Y101.549 E28.65085
G0 F6000 X150.198 Y101.549
G1 F1200 X150.949 Y102.3 E28.70383
G0 F6000 X150.949 Y101.734
G1 F1200 X150.764 Y101.549 E28.71689
G0 F6000 X150.764 Y101.11
G0 X151.318 Y101.182
G0 X151.804 Y106.11
G0 X151.804 Y106.549
G1 F1200 X155.949 Y110.694 E29.00934
G0 F6000 X155.949 Y110.129
G1 F1200 X152.37 Y106.549 E29.26189
G0 F6000 X152.935 Y106.549
G1 F1200 X155.949 Y109.563 E29.47455
G0 F6000 X155.949 Y108.997
G1 F1200 X153.501 Y106.549 E29.64727
G0 F6000 X154.067 Y106.549
G1 F1200 X155.949 Y108.431 E29.78005
G0 F6000 X155.949 Y107.866
G1 F1200 X154.632 Y106.549 E29.87297
G0 F6000 X155.198 Y106.549
G1 F1200 X155.949 Y107.3 E29.92596
G0 F6000 X155.949 Y106.734
G1 F1200 X155.764 Y106.549 E29.93901
G1 F1500 E23.43901
G0 F6000 X155.764 Y106.11
G0 X156.318 Y106.182
G0 X156.318 Y118.818
G0 X148.682 Y118.818
G0 X148.677 Y114.215
G0 X148.003 Y113.938
G0 X143.899 Y117.03
G0 X143.864 Y116.994
;TYPE:SKIN
G1 F1500 E29.93901
G1 F1200 X143.659 Y116.789 E29.94624
G0 F6000 X143.659 Y117.072
G1 F1200 X143.722 Y117.135 E29.94847
G0 F6000 X143.533 Y117.795
G1 F1200 X143.351 Y117.895 E29.95655
G0 F6000 X143.013 Y118.689
G1 F1200 X143.075 Y118.751 E29.95874
;MESH:NONMESH
G0 F300 X143.075 Y118.751 Z0.5
G0 F6000 X143.05 Y118.664
G0 X143.5 Y117.586
;TIME_ELAPSED:41.813496
;LAYER:1
M140 S60
M106 S76.5
;TYPE:WALL-INNER
;MESH:Part.STL
G1 F1350 X143.5 Y117.106 E29.9747
G1 X143.5 Y117.105 E29.97473
G1 X143.5 Y106 E30.34409
G1 X148.5 Y106 E30.51039
G1 X148.5 Y101 E30.67669
G1 X151.5 Y101 E30.77647
G1 X151.5 Y106 E30.94277
G1 X156.5 Y106 E31.10907
G1 X156.5 Y119 E31.54145
G1 X148.5 Y119 E31.80753
G1 X148.5 Y114.333 E31.96276
G1 X147.266 Y113.82 E32.00721
G1 X143.84 Y117.246 E32.16836
G1 X143.5 Y117.586 E32.17696
G0 F7500 X143.1 Y118.071
G1 F1350 X143.1 Y105.6 E32.59175
G1 X148.1 Y105.6 E32.75805
G1 X148.1 Y100.6 E32.92435
G1 X151.9 Y100.6 E33.05074
G1 X151.9 Y105.6 E33.21704
G1 X156.9 Y105.6 E33.38334
G1 X156.9 Y119.4 E33.84233
G1 X148.1 Y119.4 E34.13502
G1 X148.1 Y114.6 E34.29467
G1 X147.36 Y114.292 E34.32133
G1 X143.44 Y118.212 E34.50571
G1 X143.1 Y118.552 E34.5217
G1 X143.1 Y118.072 E34.53029
G1 X143.1 Y118.071 E34.53033
G0 F7500 X143.038 Y118.702
G0 X142.8 Y119.276
;TYPE:WALL-OUTER
G1 F1350 X142.8 Y105.3 E34.99517
G1 X147.8 Y105.3 E35.16147
G1 X147.8 Y100.3 E35.32777
G1 X152.2 Y100.3 E35.47412
G1 X152.2 Y105.3 E35.64042
G1 X157.2 Y105.3 E35.80672
G1 X157.2 Y119.7 E36.28566
G1 X147.8 Y119.7 E36.59831
G1 X147.8 Y114.8 E36.76128
G1 X147.43 Y114.646 E36.77461
G1 X142.8 Y119.276 E36.99239
G0 F7500 X143.038 Y118.702
G0 X144.086 Y116.843
G0 X143.89 Y116.646
;TYPE:SKIN
G1 F1350 X143.89 Y106.39 E37.33351
G1 X148.89 Y106.39 E37.49981
G1 X148.89 Y101.39 E37.66611
G1 X151.11 Y101.39 E37.73995
G1 X151.11 Y106.39 E37.90625
G1 X156.11 Y106.39 E38.07255
G1 X156.11 Y118.61 E38.47899
G1 X148.89 Y118.61 E38.71913
G1 X148.89 Y114.073 E38.87003
G1 X147.175 Y113.36 E38.9318
G1 X143.89 Y116.646 E39.08634
G0 F7500 X144.086 Y116.843
G0 X143.695 Y117.116
G0 X143.61 Y107.114
G0 X144.049 Y107.114
G1 F1350 X144.614 Y106.549 E39.11292
G0 F7500 X145.18 Y106.549
G1 F1350 X144.049 Y107.68 E39.16612
G0 F7500 X144.049 Y108.246
G1 F1350 X145.746 Y106.549 E39.24594
G0 F7500 X146.311 Y106.549
G1 F1350 X144.049 Y108.811 E39.35234
G0 F7500 X144.049 Y109.377
G1 F1350 X146.877 Y106.549 E39.48536
G0 F7500 X147.443 Y106.549
G1 F1350 X144.049 Y109.943 E39.645
G0 F7500 X144.049 Y110.508
G1 F1350 X148.008 Y106.549 E39.83122
G0 F7500 X148.574 Y106.549
G1 F1350 X144.049 Y111.074 E40.04406
G0 F7500 X144.049 Y111.64
G1 F1350 X150.948 Y104.74 E40.36859
G0 F7500 X150.948 Y104.175
G1 F1350 X149.049 Y106.074 E40.45792
G0 F7500 X149.049 Y105.508
G1 F1350 X150.948 Y103.609 E40.54724
G0 F7500 X150.948 Y103.043
G1 F1350 X149.049 Y104.943 E40.63659
G0 F7500 X149.049 Y104.377
G1 F1350 X150.948 Y102.478 E40.72591
G0 F7500 X150.948 Y101.912
G1 F1350 X149.049 Y103.811 E40.81523
G0 F7500 X149.049 Y103.246
G1 F1350 X150.745 Y101.549 E40.89503
G0 F7500 X150.18 Y101.549
G1 F1350 X149.049 Y102.68 E40.94823
G0 F7500 X149.049 Y102.114
G1 F1350 X149.614 Y101.549 E40.9748
G0 F7500 X149.614 Y101.11
G0 X151.318 Y101.182
G0 X151.39 Y105.306
G0 X150.948 Y105.306
G1 F1350 X144.049 Y112.205 E41.29931
G0 F7500 X144.049 Y112.771
G1 F1350 X150.948 Y105.872 E41.62382
G0 F7500 X150.948 Y106.437
G1 F1350 X144.049 Y113.337 E41.94835
G0 F7500 X144.049 Y113.902
G1 F1350 X151.402 Y106.549 E42.29421
G0 F7500 X151.968 Y106.549
G1 F1350 X144.049 Y114.468 E42.6667
G0 F7500 X144.049 Y115.034
G1 F1350 X152.534 Y106.549 E43.06581
G0 F7500 X153.099 Y106.549
G1 F1350 X144.049 Y115.599 E43.49149
G0 F7500 X144.049 Y116.165
G1 F1350 X153.665 Y106.549 E43.9438
G0 F7500 X154.231 Y106.549
G1 F1350 X147.47 Y113.31 E44.26182
G0 F7500 X147.87 Y113.476
G1 F1350 X154.796 Y106.549 E44.58762
G0 F7500 X155.362 Y106.549
G1 F1350 X148.268 Y113.643 E44.9213
G0 F7500 X148.668 Y113.809
G1 F1350 X155.928 Y106.549 E45.26279
G0 F7500 X155.949 Y107.094
G1 F1350 X149.049 Y113.994 E45.58734
G0 F7500 X149.049 Y114.559
G1 F1350 X155.949 Y107.659 E45.9119
G0 F7500 X155.949 Y108.225
G1 F1350 X149.049 Y115.125 E46.23645
G0 F7500 X149.049 Y115.691
G1 F1350 X155.949 Y108.791 E46.56101
G0 F7500 X155.949 Y109.356
G1 F1350 X149.049 Y116.256 E46.88556
G0 F7500 X149.049 Y116.822
G1 F1350 X155.949 Y109.922 E47.21011
G0 F7500 X155.949 Y110.488
G1 F1350 X149.049 Y117.388 E47.53467
G0 F7500 X149.049 Y117.953
G1 F1350 X155.949 Y111.053 E47.85922
G0 F7500 X155.949 Y111.619
G1 F1350 X149.118 Y118.45 E48.18053
G0 F7500 X149.684 Y118.45
G1 F1350 X155.949 Y112.185 E48.47522
G0 F7500 X155.949 Y112.751
G1 F1350 X150.25 Y118.45 E48.74328
G0 F7500 X150.815 Y118.45
G1 F1350 X155.949 Y113.316 E48.98477
G0 F7500 X155.949 Y113.882
G1 F1350 X151.381 Y118.45 E49.19964
G0 F7500 X151.947 Y118.45
G1 F1350 X155.949 Y114.448 E49.38788
G0 F7500 X155.949 Y115.013
G1 F1350 X152.513 Y118.45 E49.54952
G0 F7500 X153.078 Y118.45
G1 F1350 X155.949 Y115.579 E49.68456
G0 F7500 X155.949 Y116.145
G1 F1350 X153.644 Y118.45 E49.79298
G0 F7500 X154.21 Y118.45
G1 F1350 X155.949 Y116.71 E49.8748
G0 F7500 X155.949 Y117.276
G1 F1350 X154.775 Y118.45 E49.93003
G0 F7500 X155.341 Y118.45
G1 F1350 X155.949 Y117.842 E49.95862
G0 F7500 X156.39 Y117.842
G0 X156.318 Y118.818
G0 X148.682 Y118.818
G0 X148.033 Y114.645
G0 X147.376 Y114.371
G0 X144.003 Y116.926
G0 X143.929 Y116.851
;TYPE:SKIN
G1 F1350 X143.659 Y117.121 E49.96497
G0 F7500 X143.659 Y116.838
G1 F1350 X143.729 Y116.768 E49.96662
G0 F7500 X143.61 Y116.768
G0 X143.362 Y117.701
G0 X143.318 Y117.745
G1 F1350 X143.421 Y117.924 E49.97527
G0 F7500 X143.505 Y117.725
;MESH:NONMESH
G0 F300 X143.505 Y117.725 Z0.7
G0 F7500 X143.5 Y117.586
;TIME_ELAPSED:75.049128
;LAYER:2
M106 S153
;TYPE:WALL-INNER
;MESH:Part.STL
G1 F1500 X143.5 Y117.106 E49.99124
G1 X143.5 Y117.105 E49.99127
G1 X143.5 Y106 E50.36062
G1 X148.5 Y106 E50.52693
G1 X148.5 Y101 E50.69323
G1 X151.5 Y101 E50.79301
G1 X151.5 Y106 E50.95931
G1 X156.5 Y106 E51.12561
G1 X156.5 Y119 E51.55799
G1 X148.5 Y119 E51.82407
G1 X148.5 Y114.333 E51.9793
G1 X147.266 Y113.82 E52.02374
G1 X143.84 Y117.246 E52.18489
G1 X143.5 Y117.586 E52.1935
G0 F9000 X143.1 Y118.071
G1 F1500 X143.1 Y105.6 E52.60828
G1 X148.1 Y105.6 E52.77458
G1 X148.1 Y100.6 E52.94089
G1 X151.9 Y100.6 E53.06727
G1 X151.9 Y105.6 E53.23357
G1 X156.9 Y105.6 E53.39988
G1 X156.9 Y119.4 E53.85887
G1 X148.1 Y119.4 E54.15155
G1 X148.1 Y114.6 E54.3112
G1 X147.36 Y114.292 E54.33786
G1 X143.44 Y118.212 E54.52225
G1 X143.1 Y118.552 E54.53824
G1 X143.1 Y118.072 E54.54683
G1 X143.1 Y118.071 E54.54686
G0 F9000 X143.038 Y118.702
G0 X142.8 Y119.276
;TYPE:WALL-OUTER
G1 F1500 X142.8 Y105.3 E55.01171
G1 X147.8 Y105.3 E55.17801
G1 X147.8 Y100.3 E55.34431
G1 X152.2 Y100.3 E55.49065
G1 X152.2 Y105.3 E55.65695
G1 X157.2 Y105.3 E55.82325
G1 X157.2 Y119.7 E56.3022
G1 X147.8 Y119.7 E56.61484
G1 X147.8 Y114.8 E56.77782
G1 X147.43 Y114.646 E56.79115
G1 X142.8 Y119.276 E57.00893
G0 F9000 X143.038 Y118.702
G0 X144.086 Y116.843
G0 X143.89 Y116.646
;TYPE:SKIN
G1 F1500 X143.89 Y106.39 E57.35005
G1 X148.89 Y106.39 E57.51635
G1 X148.89 Y101.39 E57.68265
G1 X151.11 Y101.39 E57.75648
G1 X151.11 Y106.39 E57.92279
G1 X156.11 Y106.39 E58.08909
G1 X156.11 Y118.61 E58.49552
G1 X148.89 Y118.61 E58.73566
G1 X148.89 Y114.073 E58.88656
G1 X147.175 Y113.36 E58.94834
G1 X143.89 Y116.646 E59.10288
G0 F9000 X144.296 Y116.012
G1 F1500 X144.048 Y115.764 E59.11454
G0 F9000 X144.579 Y115.729
G1 F1500 X144.048 Y115.199 E59.1395
G0 F9000 X144.048 Y114.633
G1 F1500 X144.862 Y115.446 E59.17776
G0 F9000 X145.144 Y115.163
G1 F1500 X144.048 Y114.067 E59.22931
G0 F9000 X144.048 Y113.501
G1 F1500 X145.427 Y114.88 E59.29418
G0 F9000 X145.71 Y114.597
G1 F1500 X144.048 Y112.936 E59.37233
G0 F9000 X144.048 Y112.37
G1 F1500 X145.993 Y114.315 E59.46382
G0 F9000 X146.276 Y114.032
G1 F1500 X144.048 Y111.804 E59.56861
G0 F9000 X144.048 Y111.239
G1 F1500 X146.559 Y113.749 E59.6867
G0 F9000 X146.842 Y113.466
G1 F1500 X144.048 Y110.673 E59.8181
G0 F9000 X144.048 Y110.107
G1 F1500 X147.124 Y113.183 E59.96278
G0 F9000 X147.236 Y113.67
G0 X147.894 Y113.961
G0 X148.063 Y113.556
G1 F1500 X144.048 Y109.542 E60.15161
G0 F9000 X144.048 Y108.976
G1 F1500 X149.032 Y113.96 E60.38605
G0 F9000 X149.049 Y113.977
G1 F1500 X153.522 Y118.45 E60.59644
G0 F9000 X152.957 Y118.45
G1 F1500 X149.049 Y114.542 E60.78026
G0 F9000 X149.049 Y115.108
G1 F1500 X152.391 Y118.45 E60.93746
G0 F9000 X151.825 Y118.45
G1 F1500 X149.049 Y115.674 E61.06803
G0 F9000 X149.049 Y116.239
G1 F1500 X151.26 Y118.45 E61.17203
G0 F9000 X150.694 Y118.45
G1 F1500 X149.049 Y116.805 E61.24941
G0 F9000 X149.049 Y117.371
G1 F1500 X150.128 Y118.45 E61.30016
G0 F9000 X149.562 Y118.45
G1 F1500 X149.049 Y117.936 E61.32432
G0 F9000 X148.61 Y117.936
G0 X148.682 Y118.818
G0 X154.088 Y118.89
G0 X154.088 Y118.45
G1 F1500 X144.048 Y108.41 E61.79657
G0 F9000 X144.048 Y107.845
G1 F1500 X154.654 Y118.45 E62.29542
G0 F9000 X155.219 Y118.45
G1 F1500 X144.048 Y107.279 E62.82087
G0 F9000 X144.048 Y106.713
G1 F1500 X155.785 Y118.45 E63.37294
G0 F9000 X155.949 Y118.048
G1 F1500 X144.45 Y106.549 E63.91382
G0 F9000 X145.016 Y106.549
G1 F1500 X155.949 Y117.482 E64.42807
G0 F9000 X155.949 Y116.917
G1 F1500 X145.581 Y106.549 E64.91575
G0 F9000 X146.147 Y106.549
